!!!!SEGMENT: pl-wn--sd-xvi-qu-273--010_gomolka-mikolaj--czemus-panie-odstapil-czemus-twarz-swoje.krn
!!!cenid: 15xx:215
!!!COM: Gomółka, Mikołaj
!!!COM-rismid: pe30013343
!!!CDT: ~1535->1591/04/30
!!!CNT: Polish
!!!GTL: Melodiae na psalterz polski
!!!OTL: X. Czemuś, Panie, odstąpił? Czemuś twarz swoje
!!!PDT: 1580
!!!AGN: Sacred
!!!SMS-siglum: PL-Wn
!!!SMS-shelfmark: SD XVI.Qu.273
!!!SMS-shelfwork: 010 G
!!!NIFC-rismid:
!!!ONB-nifc: Melodiae na psalterz polski
**kern	**text	**kern	**text	**kern	**text	**kern	**text
*part4	*part4	*part3	*part3	*part2	*part2	*part1	*part1
*staff4	*staff4	*staff3	*staff3	*staff2	*staff2	*staff1	*staff1
*clefF4	*	*clefC4	*	*clefC3	*	*clefC1	*
*k[b-]	*	*k[b-]	*	*k[b-]	*	*k[b-]	*
*g:	*	*g:	*	*g:	*	*g:	*
*M4/2	*	*M4/2	*	*M4/2	*	*M4/2	*
*met(C|)	*	*met(C|)	*	*met(C|)	*	*met(C|)	*
*xywh-12r:518,5261,5016,1446	*	*xywh-12r:518,3986,5016,1339	*	*xywh-12r:561,2764,5048,1414	*	*xywh-12r:561,1145,5037,1811	*
=1-	=1-	=1-	=1-	=1-	=1-	=1-	=1-
1D\	Cze-	1D/	Cze-	1A/	Cze-	1d/	Cze-
2D/	-muś	2F/	-muś	2.d\	-muś	2a\	-muś
2GG/	pá-	2G/	pá-	.	.	2b-\	pá-
.	.	.	.	4e\	pá-	.	.
=2-	=2-	=2-	=2-	=2-	=2-	=2-	=2-
2D/	-nie	2A/	-nie	2f\	-nie	2a\	-nie
2C/	ods-	2A/	ods-	2e\	ods-	2cc\	ods-
2D/	-tą-	2f\	-tą-	2d\	-tą-	2b-\	-tą-
2E\	.	4e\	.	4c/	.	4a\	.
.	.	4d\	.	4B-/	.	4g/	.
=3-	=3-	=3-	=3-	=3-	=3-	=3-	=3-
2F\	-pił?	2c\	-pił?	2A/	-pił?	2a\	-pił?
2D/	cze-	2f\	cze-	2a\	cze-	2dd\	cze-
2A\	-muś	2e\	-muś	2a\	-muś	2cc#\X	-muś
2B-\	twarz	2d\	twarz	2f\	twarz	2dd\	twarz
=4-	=4-	=4-	=4-	=4-	=4-	=4-	=4-
1G\	swo-	1d\	swo-	2g\	swo-	1b-\	swo-
.	.	.	.	2G/	.	.	.
2F\	-ję	2d\	-ję	2A/	-ję	2a\	-ję
2G\	Odw-	1d\	Odw-	2B-/	Odw-	1g\	Odw-
=5-	=5-	=5-	=5-	=5-	=5-	=5-	=5-
1E-\X	-ró-	.	.	1G/	-ró-	.	.
.	.	2c#\X	-ró-	.	.	4f#/X	-ró-
.	.	.	.	.	.	4e/	.
2D/	-ćił	2d\	-ćił	2A/	-ćił	2f#/X	-ćił
2AA/	precz	2e\	precz	2c#X/	precz	2a\	precz
=6-	=6-	=6-	=6-	=6-	=6-	=6-	=6-
2D/	o-	2f\	o-	2d\	o-	2a\	o-
2GG/	-de	2d\	-de	4g\	-de	2b-\	-de
.	.	.	.	4f\	.	.	.
2AA/	mnie	2c\	mnie	4e\	mnie	2a\	.
.	.	.	.	8d\L	.	.	.
.	.	.	.	8e\J	.	.	.
!LO:TX:a:t=S:sic:brak tekstu w partii tenorowej	!	!	!LO:TX:a:t=S:sic:część tekstu podpisana w dwóch wierszach	!	!	!	!
2FF/	w do-	2A/	<w do-	4f\	w do-	2cc\	mnie
.	.	.	.	4e\	.	.	.
=7-	=7-	=7-	=7-	=7-	=7-	=7-	=7-
2GG/	-leg	4B-\	-leg-	4d\	-leg-	2b-\	w do-
.	.	4c\	.	4e\	.	.	.
1D\	-łość	1d\	-łość>	1f\	-łość	2.a\	-leg-
.	.	.	.	.	.	4g/	-łość
!!LO:PB:g=original
*xywh-12v:1321,5399,5064,1344	*	*xywh-12v:1266,4044,5118,1355	*	*xywh-12v:1191,2851,5151,1279	*	*xywh-12v:1256,1235,5086,1670	*
2E-\X	mo-	2B-\	mo-	2e-\X	mo-	1g\	mo-
=8-	=8-	=8-	=8-	=8-	=8-	=8-	=8-
2C/	.	2c\	.	2e-\y	-ję?	.	.
2D/	-ję?	2A/	.	4d\	.	2f/	.
.	.	.	.	4c/	.	.	.
!LO:TX:a:t=S:sic:złe podpisanie tekstu?	!	!	!	!	!	!	!
1GG/	Gdy	1B\X	-ję?	4d\	.	1g\	-ję?
.	.	.	.	4c/	.	.	.
.	.	.	.	4d\	.	.	.
!	!	!	!	!LO:TX:a:t=S:sic:być może bemol obowiązuje do końca systemu	!	!	!
.	.	.	.	4en\y	.	.	.
=9-	=9-	=9-	=9-	=9-	=9-	=9-	=9-
2D/	.	2d\	Gdy	4f\	Gdy	1a\	Gdy
.	.	.	.	4e\	.	.	.
1F\	zły	2c\	.	4f\	.	.	.
.	.	.	.	4g\	.	.	.
.	.	2f\	zły	2a\	zły	2cc\	zły
2G\	czło-	2d\	czło-	4g\	czło-	2b-\	czło-
.	.	.	.	4f\	.	.	.
=10-	=10-	=10-	=10-	=10-	=10-	=10-	=10-
2A\	-wiek	2c\	-wiek	2e\	-wiek	2a\	-wiek
2F\	prze-	4f\	prze-	1a\	prze-	2cc\	prze-
.	.	4e\	.	.	.	.	.
1B-\	-wo-	4d\	.	.	.	1dd\	-wo-
.	.	4c\	.	.	.	.	.
.	.	2d\	-wo-	2g\	-wo-	.	.
=11-	=11-	=11-	=11-	=11-	=11-	=11-	=11-
2A\	-dźi,	2e\	-dźi,	2a\	-dźi,	2cc#\X	-dźi,
2D/	gdy	2f\	gdy	2a\	gdy	2dd\	gdy
2G\	járz-	4B-\	járz-	2g\	járz-	2b-\	járz-
.	.	4c\	.	.	.	.	.
2F\	.	1d\	.	2c\	.	1a\	.
=12-	=12-	=12-	=12-	=12-	=12-	=12-	=12-
2D/	.	.	.	2f\	.	.	.
2E\	-mo	4c\	-mo	4e\	-mo	2g/	-mo
.	.	4B-\	.	4d\	.	.	.
2.F\	kła-	1A\	kła-	1c\	kła-	1a\	kła-
4E\	.	.	.	.	.	.	.
=13-	=13-	=13-	=13-	=13-	=13-	=13-	=13-
2.D/	-dźie	1d\	-dźie	2.f\	-dźie	1a\	-dźie
4C/	.	.	.	4e\	.	.	.
1BB-/	Ná	2.d\	Ná	2d\	Ná	2.b-\	Ná
.	.	.	.	1d\	u-	.	.
.	.	4c\	.	.	.	4a\	.
=14-	=14-	=14-	=14-	=14-	=14-	=14-	=14-
2E\	u-	2B-\	u-	.	.	4g\	u-
.	.	.	.	.	.	4f/	.
2E\	-bo-	4A\	-bo-	2c\	-bo-	2g\	-bo-
.	.	4G/	.	.	.	.	.
!!LO:PB:g=original
*xywh-13r:564,5175,2443,1414	*	*xywh-13r:596,3996,2550,1243	*	*xywh-13r:628,2678,2797,1339	*	*xywh-13r:649,1124,2207,1607	*
2D/	-gié:	2A/	-gié;	2d\	-gié;	2f#/X	-gié;
2F\	bo-	2A/	bo-	2c/	bo-	2a\	bo-
=15-	=15-	=15-	=15-	=15-	=15-	=15-	=15-
2C/	(-daj)	4G/	-daj	2e-\X	-daj	2cc\	(-daj)
.	.	4A/	.	.	.	.	.
1G\	sã(m)	4B-\	.	2c/	sam	1b-\	sam
.	.	4c\	.	.	.	.	.
.	.	2d\	sam	4B-/	zgi-	.	.
.	.	.	.	4c/	.	.	.
2F\	zgi-	2A/	zgi-	2d\	.	2a\	zgi-
=16-	=16-	=16-	=16-	=16-	=16-	=16-	=16-
2E-\y	(-nął)	2B-\	(-nął)	2e-\X	-nął	2g/	(-nął)
2C/	w sw(ej)	4c\	w sw(ej)	2e-\y	w swej	1g\	w swej
.	.	4B-\	.	.	.	.	.
1D\	ra-	4A/	.	2.d\	rá-	.	.
.	.	4G/	.	.	.	.	.
.	.	2A/	rá-	.	.	2f#/X	rá-
.	.	.	.	4c\	.	.	.
=17-	=17-	=17-	=17-	=17-	=17-	=17-	=17-
0GG/	-dźie:	0G/	-dźie.	0B-/	-dźie.	0g\	-dźie.
==	==	==	==	==	==	==	==
*-	*-	*-	*-	*-	*-	*-	*-
!!!RDF**kern: l = terminal long
!!!system-decoration: s1,s2,s3,s4
!!!ENC: Leszek Kubiak
!!!END: data 2020=-2=01
!!!URL-scan: https://polona.pl/item/melodiae-na-psalterz-polski,Nzk3MTM4ODQ/38 Scan on Polona
!!!IIIF: https://polona.pl/iiif/item/Nzk3MTM4ODQ/manifest.json
